X:2
T:Slingsby's Reel
M: C|
L:1/8
B:Thompson's Compleat Collection of 200 Favourite Country Dances, vol. 3 (London, 1773)
Z:Transcribed and edited by Flynn Titford-Mock, 2007
Z:abc's:AK/Fiddler's Companion
K:A
ABcd efec | efec B/B/B B2 | ABcd efec | afec A/A/A A2 :|
|: B>AB>c B>AB>c | B>AB>c F/F/F F2 | B>AB>c dfec | B>AB>c A/A/A A2 :|

